X: 42867
T: Wild Rose Of The Mountain
R: waltz
M: 3/4
K: Gmajor
B A|:G4 (3BAG|A2 G2 A2|B2 c2 d2|e2 f2 g2|d3 c B2|A3 G F2|E6|F4
D2|G4 (3BAG|A2 G2 A2|B3 c d2|e2 f2 g3|d4 c B2|cB AG
F/G/A/F/|G6|G4 B A:|G4 dc||
|:B4 d2|c4 d2|f3 e f2|g2 d2 B2|e3 f g2|d3 c B2|A3 a ag|f2 e2 dc|B2
d2 B2|c4 d2|f3 g/f/ ef|g2 d2 B2|e3 c dB|cB AG F/G/A/F|G6|G4 d2:|
G5 ~||

